X: 1183
T: Music in the Glen
M:C|
L:1/8
R:Reel
B:O'Neill's 1183
N:Collected by Cronin
Z:Transcribed by Trish O'Neil, oneil@cybernw.com
K:A
A2(cA) FAED|CEAc BABc|d2(fd) ceAc|dBcA BAFE|
A2(cA) FAED|CEAc BABc|defg agaf|edcBA2"end"z2||
cAeA fAed|cAec dBGB|cAeA fA (3efg|aecA BAFE|
cAeA fAeg|aega bgeg|afge fdec|dBcA BA"DC"FG||


